X:1
T:The Well-Tempered Clavier Part II Fuga IV
T:BWV 873
T:J. S. Bach
%%score { ( 1 3 ) | 2 }
L:1/8
M:12/16
K:E
V:1 treble nm="Harp"
V:3 treble 
V:2 bass 
V:1
 z6 | z3 G/^^F/G/ ^A/G/A/ | D/^E/^^F/ G/^A/B/ c/B/c/ A/d/c/ | B/^A/B/ G/c/B/ =A/G/A/ F/B/A/ | %4
 G3/2 F3 E3/2 | D3/2d3/2 G3/2A3/2- | A3/2 G3 F3/2- | F/G/A/ G/A/F/ E3 | D3/2 z3/2 G/F/G/ E/A/G/ | %9
 F/E/F/ D/G/F/ ^E/D/C/ F3/2- | F3/2 E3 D/C/B,/ | C3 B,3 | A,/G,/A,/ F,/B,/A,/ G,/B,/E/- E/D/C/ | %13
 B,/E/G/- G/F/E/ D3/2^E3/2 | F3/2 z3/2 ^A3/2=c3/2 | c/^B/c/ d/c/d/ G/^A/B/ c/d/e/ | %16
 f/e/f/ d/g/f/ e/d/e/ c/B/c/ | ^a3/2d3/2 ^e3/2^^f3/2 | g3/2 e3 d3/2 | e3 d3/2=d3/2 | %20
 c3/2 d/e/f/ B3/2 c/d/e/ | A3/2 B/c/d/ G3/2 G/B/^A/ | B3/2- B/d/c/ d3/2- d/f/e/ | %23
 f/g/f/ e/f/e/ b/^a/g/ f/e/d/ | c/d/c/ e/B/c/ d/e/d/ f/c/d/ | e3/2 ^e3/2A z/ z/ z/ f/ | %26
 ^e=e/ d=d/ cf/ ^e=e/ | d^e/ f3 =e3/2- | e3/2d3/2- dc/ =cB/ | ^A=A/ f/e/f/ ^B/c/d/ G3/2 | %30
 ^A3/2^B3/2 c3/2=A3/2- | A3/2 G3 F3/2 | G/D/G/- G/F/E/ D/F/A/- A/G/F/ | E3/2F3/2 G z/ z3/2 | %34
 f3 =f3/2e3/2 | d3/2g3/2 c3/2f3/2- | f3/2e3/2 d3/2e3/2 | e3/2d3/2- d/c/B/ c/d/e/- | %38
 e/d/c/ B/c/B/ ^A3/2 z3/2 | d/c/d/ B/e/d/ c/B/c/ ^A/d/c/ | =c/^A/G/ ^c3 B3/2- | B>AG/F/ G3 | %42
 F3 E/D/E/ C/F/E/ | D/F/B/- B/A/G/ F/^e/f/ g/c/B/ | A3/2 z/ z/ f/ e3/2d3/2- | %45
 d/c/d/ e/A/G/ F/d/e/ f/B/A/ | G/g/a/ b/e/=d/ c3- | c/^B/c/ d/c/d/ G/^A/B/ c/d/e/ | %48
 f/e/f/ d/g/f/ e3/2d3/2 | c3/2- c/c/e/ d3/2c3/2 | B3/2- B/B/=d/ c/B/c/ F/B/A/ | %51
 G/F/G/ E/A/G/ F/E/F/ G/F/G/ | A3- A3/2G3/2 | A/c/B/ c/B/A/ B/=d/F/ ^E z/ | c3 ^B3/2=B3/2 | %55
 ^A3/2d3/2 G3/2c3/2- | c3/2^B3/2 c z/ A/G/A/ | F/B/A/ G/F/G/ E/A/G/ F3/2 | %58
 F/E/D/ E/G/c/ c/^B/^A/ B/d/g/- | g/f/e/ d/e/c/ ^B/c/d/ G/g/f/ | %60
 e/d/e/ G/4^^F/4 G/4F/4 G/4F/4 G3- | G3/2F3/2- F/E/F/ D/G/F/ | ^E3/2=E3/2- E/D/E/ C/F/E/ | %63
 D/C/B,/ E3/2- E/D/C/ D/^E/F/ | G3- G/F/^E/ F/A/c/ | f3 ^e3/2=e3/2 | d3/2g3/2 c3- | %67
 c/^B/^A/ B/A/G/ g3/2^^f3/2 | f3/2^e3/2 =e3/2d3/2 | ^BG/ c3 B3/2 | c3/2 z3/2 z3 |] %71
V:2
 C,/^B,,/C,/ D,/C,/D,/ G,,/^A,,/B,,/ C,/D,/E,/ | F,/E,/F,/ D,/G,/F,/ E,/D,/E,/ C,3/2- | %2
 C,3/2B,,3/2 ^A,,3/2^^F,3/2 | G,,3/2 E,3 D,3/2 | E,3/2^B,,3/2 C,3/2C3/2- | C3/2^B,3/2 C3/2F,3/2 | %6
 B,3/2E,3/2 A,3 | G,3- G,/F,/G,/ E,/A,/G,/ | F,/E,/F,/ D,/G,/F,/ E,/D,/E,/ C,/F,/E,/ | %9
 D,3/2G,3/2 C,3- | C,/B,,/C,/ G,,/C,/B,,/ ^A,,/G,,/F,,<B,,- | B,,3/2 A,,3 G,,/F,,/E,,/ | %12
 F,,3/2B,,3/2 E,,3/2 z3/2 | z3 B,,/A,,/B,,/ C,/B,,/C,/ | F,,3/2E,,3/2 D,,3/2G,,3/2 | %15
 C,/D,/E,/ F,3/2- F,/E,/D,/ E,/F,/G,/ | A,/G,/F,/ G,/^A,/^B,/ C3- | C3/2B,3/2 ^A,3/2D3/2 | %18
 G,3/2C3/2 F,3/2B,3/2 | E,/D,/E,/ F,/E,/F,/ B,,/C,/D,/ E,/F,/G,/ | %20
 A,/G,/A,/ F,/B,/A,/ G,/F,/G,/ E,/A,/G,/ | F,/E,/F,/ D,/G,/F,/ E,/D,/E,/ C, z/ | %22
 G,/F,/G,/ E, z/ B,/^A,/B,/ G, z/ | D3/2E3/2- E3/2 D/C/B,/ | FF,/ G,^A,/ B,G,/ A,=C/ | %25
 C/B,/A,/ G,/A,/G,/ F,3/2 z3/2 | z6 | G,/A,/G,/ F,/G,/F,/ C/B,/A,/ G,/F,/E,/ | %28
 D,/E,/D,/ F,/C,/D,/ E,/F,/E,/ G,/D,/^E,/ | F,3- F,3/2E,3/2 | D,3/2G,3/2 C,3/2F,3/2 | %31
 B,,3/2E,3/2 B,,/4A,,/4B,,/4A,,/4 B,,/4A,,/4B,,/4A,,/4 B,,/4A,,/4B,,/4A,,/4 | %32
 G,,3/2^A,,3/2 ^B,,3/2G,,3/2 | C,3/2D,3/2 E,3/2^E,3/2 | F,3/2=D,3/2 C,3/2 F,/E,/F,/ | %35
 B,,/G,/F,/ ^E,/D,/E,/ F,/G,/=E,/ D,/E,/C,/ | ^B,,/C,/D,/ E,/D,/C,/ G,D,/ G,3/2 | %37
 ^^F,3/2^F,3/2 ^E,3/2^A,3/2 | D,3/2- D,/E,/D,/ C,/B,,/C,/ ^A,,/D,/C,/ | %39
 B,,/^A,,/B,,/ G,,/C,/B,,/ A,,3/2D,3/2 | G,,3/2 z3/2 G,/F,/G,/ D,/G,/F,/ | =F,/D,/C,/ ^F,3 E,3/2- | %42
 E,3/2 E,/E,/B,,/ C,3/2F,3/2 | B,,3/2 z/ z/ B,/ A,3/2G,3/2 | F,3/2G,3/2 ^A,3/2^B,3/2 | %45
 C z/ z/ z/ C,/ D, z/ z/ z/ D/ | E/E,/F,/ G,/F,/G,/ A,/G,/F,/ ^E,/D,/E,/ | F,3 =F,3/2E,3/2 | %48
 D,3/2G,3/2 C,3/2B,,3/2 | A,,3/2 z/ z/ ^A,,/ B,,3/2=A,,3/2 | G,,3/2 z/ z/ G,/ A,/G,/A,/ B,/A,/B,/ | %51
 E,3/2A,3/2 D,3/2E,3/2 | A,,/B,,/C,/ =D,/E,/D,/ C,/B,,/A,,/ E,3/2- | E,3/2D,3/2 =D,3/2C,3/2- | %54
 C,/^B,,/C,/ D,/C,/D,/ G,,/^A,,/B,,/ C,/D,/^E,/ | F,/E,/F,/ D,/G,/F,/ E,/D,/E,/ C,/F,/E,/ | %56
 D,3/2G,3/2 C,3/2F,3/2 | B,3/2E,3/2 A,3/2D,3/2 | G,6- | G,3- G,F,/ E,D,/ | C,3 ^B,,3/2=B,,3/2 | %61
 ^A,,3/2D,3/2 G,, z/ G,/F,/G,/ | C, z/ C,/B,,/C,/ F,, z/ F,/E,/F,/ | B,,3- B,,3/2- B,,/C,/=D,/ | %64
 ^E,,3/2^E,3/2 F,G,/ A,3/2- | A,G,/ F,3/2 G,3- | G,3- G,/F,/G,/ A,/G,/A,/ | %67
 D,/E,/F,/ G,/^A,/^B,/ C/B,/C/ A,/D/C/ | ^B,/^A,/B,/ G,/C/=B,/ =A,/G,/A,/ ^B,,/C,/D,/ | %69
 E,/D,/E,/ ^^F,,/G,,/^A,,/ G,,3 | C,,3/2 z3/2 z3 |] %71
V:3
 x6 | x6 | x6 | x6 | C/^B,/C/ D/C/D/ G,/^A,/B,/ C/D/E/ | F/E/F/ D/G/F/ E/D/E/ C/F/E/ | %6
 D/C/D/ B,/E/D/ C/D/E/ D/E/C/ | ^B,3- B,3/2C3/2- | C3/2^B,3/2 C3- | C3/2 B,3 A,/G,/F,/ | G,3 F,3 | %11
[I:staff +1] E,/D,/E,/ C,/F,/E,/ C,/B,,/B,,/ F,3/2- | F,3/2D,3/2 E,3/2F,3/2 | %13
 G,3/2[I:staff -1]^A,3/2 B,3- | B,/A,/B,/ C/D/E/ F/E/F/ D/G/F/ | E3/2 z3/2 z3 | %16
 z3 G/[I:staff +1]F/G/ ^A/G/A/ | D/^E/^^F/[I:staff -1] G/^A/B/ c/B/c/ A/d/c/ | %18
 B/^A/B/ G/c/B/ =A/G/A/ F/B/A/ | G/F/G/ ^A/G/A/ B3- | B3/2A3/2- A3/2G3/2- | G3/2F3/2- F3/2E3/2 | %22
 D3/2G3/2 F3/2B3/2- | BA/- A[I:staff +1]G/ F3/2[I:staff -1]B3/2- | %24
 B^A/ G=G/ F[I:staff +1]B,/ C[I:staff -1] z/ | c/d/c/ B/c/B/ f/=e/=d/ c/B/A/ | %26
 G/A/G/ B/F/G/ A/B/A/ c/G/^A/ | B3/2- BA/ G^B/ c3/2 | F3/2- F/E/F/ G3/2 G/F/G/ | %29
[I:staff +1] C/^B,/C/ D/C/D/ G,/^A,/B,/[I:staff -1] C/D/E/ | F/E/F/ D/G/F/ E/D/E/ C/F/E/ | %31
 D/C/D/ B,/E/D/ C/D/E/ D/E/C/ | ^B,3/2C3/2 D3/2B,3/2 | %33
 C/G,/C/- C/[I:staff +1]B,/A,/ G,/C/D/- D/C/B,/ | A,/B,/C/- C/F,/B,/- B,/^A,/G,/ A,3/2 | %35
 B,3/2[I:staff -1]B3/2 ^A3/2=A3/2 | G3/2c3/2- c/ B/^A/B/c/B/ | ^A/B/c/ B/c/A/ G3 | ^^F3/2 G3 F3/2 | %39
 G3- G3/2F3/2- | F3/2 E/D/C/ D3 | C3[I:staff +1] B,/^A,/B,/ G,/C/B,/ | %42
 ^A,/G,/F,/ B,3/2- B,3/2A,3/2 | B,3/2C3/2 D3/2^E3/2 | F/C/F/ F/E/=D/ C/[I:staff -1]^B/c/ d/G/F/ | %45
 E[I:staff +1]G,/ C3/2 C/B,/C/ D/E/F/ | E/[I:staff -1] z/ z/ z3/2 z/ ^E/F/ G/C/[I:staff +1]B,/ | %47
 A,[I:staff -1]A/[I:staff +1]{C} ^B,3/2 C3- | C3/2^B,3/2 C/[I:staff -1]E/A/ A/^^F/G/- | %49
 G/F/^E/ F3/2- F/B,/G/- G/E/F/- | F/E/D/ E3/2- E3/2D3/2 | =D3/2C3/2 =C3/2B,3/2 | %52
 C/=D/C/ B,/C/B,/ E/D/C/ B,/[I:staff +1]A,/G,/ | F,/A,/G,/ A,/E,/F,/ G,/B,/A,/ B,/F,/G,/ | %54
[I:staff -1] A,3/2A3/2- A/G/F/ ^E/F/G/ | C3/2[I:staff +1]^B,3/2[I:staff -1] G/F/G/ E/=A/G/ | %56
 F/E/F/ D/G/F/ E/D/E/[I:staff +1] C/F/E/ |[I:staff -1] D/C/D/ B,/E/D/ C3/2 C/^B,/^A,/ | %58
[I:staff +1] ^B,3/2C3/2 D3/2E3/2 | E/D/C/ G/4^^F/4G/4^^F/4G/4F/4[I:staff -1] G z/ z3/2 | %60
[I:staff +1] G,/^^F,/G,/ ^A,/G,/A,/ D,/^E,/F,/ G,/A,/B,/ | %61
[I:staff -1] C/B,/C/ ^A,/D/C/ ^B,3/2=B,3/2- | B,/^A,/B,/ G,/C/B,/ ^A,3/2[I:staff +1]=A,3/2- | %63
 A,3/2 G,/F,/E,/ F,/G,/^A,/[I:staff -1] B,3/2 | B,/C/=D/ C/D/B,/ A, z/ z3/2 | %65
[I:staff +1] C/^B,/C/ D/C/D/ G,/^A,/B,/ C/D/E/ | F/E/F/ D/=G/F/ E/[I:staff -1]D/E/ C/A/^G/ | %67
 F3[I:staff +1] ^E3/2=E3/2 | D3/2[I:staff -1]G3/2[I:staff +1] C3/2[I:staff -1]F3/2- | %69
 F3/2 ED/ E/A/G/ F/E/D/ | ^E3/2 z3/2 z3 |] %71

